actions/24/draw-geometry-show-measuring-info.svg

<?xml version="1.0" encoding="UTF-8" standalone="no"?>
<svg
   width="24"
   height="24"
   version="1.1"
   id="svg9"
   sodipodi:docname="draw-geometry-show-measuring-info.svg"
   inkscape:version="1.1.2 (0a00cf5339, 2022-02-04)"
   xmlns:inkscape="http://www.inkscape.org/namespaces/inkscape"
   xmlns:sodipodi="http://sodipodi.sourceforge.net/DTD/sodipodi-0.dtd"
   xmlns="http://www.w3.org/2000/svg"
   xmlns:svg="http://www.w3.org/2000/svg">
  <sodipodi:namedview
     id="namedview11"
     pagecolor="#000000"
     bordercolor="#666666"
     borderopacity="1.0"
     inkscape:pageshadow="2"
     inkscape:pageopacity="0"
     inkscape:pagecheckerboard="0"
     showgrid="false"
     inkscape:zoom="28.416667"
     inkscape:cx="11.982405"
     inkscape:cy="11.964809"
     inkscape:window-width="1886"
     inkscape:window-height="967"
     inkscape:window-x="0"
     inkscape:window-y="29"
     inkscape:window-maximized="1"
     inkscape:current-layer="g7" />
  <defs
     id="defs3">
    <style
       id="current-color-scheme"
       type="text/css">
   .ColorScheme-Text { color:#eeeeec; } .ColorScheme-Highlight { color:#367bf0; } .ColorScheme-NeutralText { color:#ffcc44; } .ColorScheme-PositiveText { color:#3db47e; } .ColorScheme-NegativeText { color:#dd4747; }
  </style>
  </defs>
  <g
     transform="translate(4,4)"
     id="g7">
    <path
       style="fill:currentColor"
       class="ColorScheme-Text"
       d="M 8,8 H 9 V 9 H 8 Z m 3,-5 c -1,0 -1,1 -1,1 v 4 c 0,1 1,1 1,1 h 1 c 1,0 1,-1 1,-1 V 4 C 13,3 12,3 12,3 Z m 0,1 h 1 V 8 H 11 Z M 5,3 V 4 H 6 V 9 H 7 V 3 Z M 1,1 V 11 H 6 L 9.2024108,14.202411 10,14.131009 v 0 V 11 h 1 v 2.989819 0 l 0.978912,0.03127 L 15,11 V 1 Z m 1,1 h 12 v 8 H 2 Z"
       id="path5"
       sodipodi:nodetypes="cccccscscscscsccccccccccccccccccccccccccccccc" />
  </g>
</svg>

<svg xmlns="http://www.w3.org/2000/svg" width="24" height="24" version="1.1">
 <defs>
  <style id="current-color-scheme" type="text/css">
   .ColorScheme-Text { color:#eeeeec; } .ColorScheme-Highlight { color:#367bf0; } .ColorScheme-NeutralText { color:#ffcc44; } .ColorScheme-PositiveText { color:#3db47e; } .ColorScheme-NegativeText { color:#dd4747; }
  </style>
 </defs>
 <g transform="translate(4,4)">
  <path style="fill:currentColor" class="ColorScheme-Text" d="M 8,8 H 9 V 9 H 8 Z M 11,3 C 10,3 10,4 10,4 V 8 C 10,9 11,9 11,9 H 12 C 13,9 13,8 13,8 V 4 C 13,3 12,3 12,3 Z M 11,4 H 12 V 8 H 11 Z M 5,3 V 4 H 6 V 9 H 7 V 3 Z M 1,1 V 11 H 6 L 10,15 V 11 H 11 V 15 L 15,11 V 1 Z M 2,2 H 14 V 10 H 2 Z"/>
 </g>
</svg>
